Papirus/64x64/places/folder-image.svg

<?xml version="1.0" encoding="UTF-8" standalone="no"?>
<svg xmlns="http://www.w3.org/2000/svg" height="64" viewBox="0 0 64 64" width="64" version="1.1">
 <path d="m 57,53.5011 0,-26.989543 c 0,-1.384444 -1.1235,-2.651935 -2.5,-2.498995 l -20,0 -4.5,4.09e-4 -20.5,0 C 7,24.012971 7,26.40791 7,26.40791 L 7,53.501 C 7,54.88545 8.115,56 9.5,56 l 45,0 c 1.385,0 2.5,-1.11455 2.5,-2.499 z" style="opacity:0.2;fill:#000000;fill-opacity:1"/>
 <path style="fill:#4877b1;fill-opacity:1" d="M 7,47.50009 7,12.512516 C 7,11.128033 8.1235,9.847102 9.5,10 L 26,10 c 3,0 3,1.509999 3,5 l 25.628,0 c 0,0 2.3718,0.01159 2.3718,2.510755 l 0,29.989635 c 0,1.38448 -1.115,2.49917 -2.5,2.49917 l -44.999,0 c -1.385,0 -2.5,-1.11459 -2.5,-2.49917 z"/>
 <path d="m 57,51.5011 0,-26.989543 c 0,-1.384444 -1.1235,-2.651935 -2.5,-2.498995 l -20,0 -4.5,4.09e-4 -20.5,0 C 7,22.012971 7,24.40791 7,24.40791 L 7,51.501 C 7,52.88545 8.115,54 9.5,54 l 45,0 c 1.385,0 2.5,-1.11455 2.5,-2.499 z" style="opacity:0.2;fill:#000000;fill-opacity:1"/>
 <rect rx="2.444" ry="2.5" y="18" x="10" height="20" width="44" style="opacity:1;fill:#dcdcdc;fill-opacity:1;"/>
 <path style="fill:#5294e2;fill-opacity:1" d="m 57,52.501 0,-26.989543 c 0,-1.384444 -1.1235,-2.651935 -2.5,-2.498995 l -20,0 -4.5,4.09e-4 -20.5,0 C 7,23.012871 7,25.40781 7,25.40781 L 7,52.5009 c 0,1.38445 1.115,2.499 2.5,2.499 l 45,0 c 1.385,0 2.5,-1.11455 2.5,-2.499 z"/>
 <path style="opacity:0.1;fill:#ffffff;fill-opacity:1" d="M 9.5,10 C 8.1235,9.847102 7,11.127236 7,12.511719 l 0,1.001953 C 7,12.129189 8.1235,10.847102 9.5,11 L 26,11 c 3,0 3,1.509999 3,5 l 25.628906,0 C 54.628906,16 57,16.01255 57,18.511719 l 0,-1 C 57,15.012554 54.628906,15 54.628906,15 L 29,15 c 0,-3.490001 0,-5 -3,-5 L 9.5,10 Z"/>
 <path style="color:#000000;opacity:0.65;enable-background:new" d="m 23.43,30.9999 c -1.429,0 -1.43,1.332 -1.43,1.332 l 0,13.336 c 0,1.333 1.43,1.332 1.43,1.332 l 17.141,0 c -10e-4,0 1.429,0.001 1.429,-1.332 l 0,-13.336 c 0,-1.333 -1.43,-1.332 -1.43,-1.332 l -17.14,0 z m 4.57,6 6,6 3,-4 3,4 0,2 -16,0 0,-4 4,-4 z"/>
</svg>

<svg xmlns="http://www.w3.org/2000/svg" width="64" height="64" version="1.1">
 <rect style="opacity:0.2" width="50" height="32" x="7" y="24" rx="2.5" ry="2.5"/>
 <path style="fill:#4877b1" d="M 7,44.5 C 7,45.885 8.115,47 9.5,47 H 54.5 C 55.885,47 57,45.885 57,44.5 V 17.5 C 57,16.115 55.885,15 54.5,15 H 29 V 12.5 C 29,11.115 27.885,10 26.5,10 H 9.5 C 8.115,10 7,11.115 7,12.5"/>
 <rect style="opacity:0.2" width="50" height="32" x="7" y="22" rx="2.5" ry="2.5"/>
 <rect style="fill:#dcdcdc" width="44" height="20" x="10" y="18" rx="2.5" ry="2.5"/>
 <rect style="fill:#5294e2" width="50" height="32" x="7" y="23" rx="2.5" ry="2.5"/>
 <path style="opacity:0.1;fill:#ffffff" d="M 9.5,10 C 8.115,10 7,11.115 7,12.5 V 13.5 C 7,12.115 8.115,11 9.5,11 H 26.5 C 27.885,11 29,12.115 29,13.5 V 12.5 C 29,11.115 27.885,10 26.5,10 Z M 29,15 V 16 H 54.5 C 55.89,16 57,17.115 57,18.5 V 17.5 C 57,16.115 55.89,15 54.5,15 Z"/>
 <path style="opacity:0.65" d="M 23.4 31 C 22.625 31 22 31.625 22 32.4 L 22 45.6 C 22 46.375 22.625 47 23.4 47 L 40.6 47 C 41.375 47 42 46.375 42 45.6 L 42 32.4 C 42 31.625 41.375 31 40.6 31 L 23.4 31 z M 28 37 L 34 43 L 37 39 L 40 43 L 40 45 L 24 45 L 24 41 L 28 37 z"/>
</svg>
